svgs/sharp-light/money-bill-trend-up.svg

<svg xmlns="http://www.w3.org/2000/svg" viewBox="0 0 512 512"><!--! Font Awesome Pro 6.6.0 by @fontawesome - https://fontawesome.com License - https://fontawesome.com/license (Commercial License) Copyright 2024 Fonticons, Inc. --><path d="M352 0l0 32 16 0 57.4 0L287.2 170.2 186.4 83.9 176 74.9l-10.4 8.9-112 96 20.8 24.3L176 117.1l101.6 87.1 11.2 9.6 10.5-10.5L448 54.6l0 57.4 0 16 32 0 0-16 0-96 0-16L464 0 368 0 352 0zM480 288l0 48c-26.5 0-48-21.5-48-48l48 0zm-368 0l288 0c0 44.2 35.8 80 80 80l0 32c-44.2 0-80 35.8-80 80l-288 0c0-44.2-35.8-80-80-80l0-32c44.2 0 80-35.8 80-80zM432 480c0-26.5 21.5-48 48-48l0 48-48 0zM32 432c26.5 0 48 21.5 48 48l-48 0 0-48zM80 288c0 26.5-21.5 48-48 48l0-48 48 0zM32 256L0 256l0 32L0 480l0 32 32 0 448 0 32 0 0-32 0-192 0-32-32 0L32 256zM224 384a32 32 0 1 1 64 0 32 32 0 1 1 -64 0zm96 0a64 64 0 1 0 -128 0 64 64 0 1 0 128 0z"/></svg>

<svg xmlns="http://www.w3.org/2000/svg" viewBox="0 0 512 512"><!--! Font Awesome Pro 6.5.2 by @fontawesome - https://fontawesome.com License - https://fontawesome.com/license (Commercial License) Copyright 2024 Fonticons, Inc. --><path d="M352 0V32h16 57.4L287.2 170.2 186.4 83.9 176 74.9l-10.4 8.9-112 96 20.8 24.3L176 117.1l101.6 87.1 11.2 9.6 10.5-10.5L448 54.6V112v16h32V112 16 0H464 368 352zM480 288v48c-26.5 0-48-21.5-48-48h48zm-368 0H400c0 44.2 35.8 80 80 80v32c-44.2 0-80 35.8-80 80H112c0-44.2-35.8-80-80-80V368c44.2 0 80-35.8 80-80zM432 480c0-26.5 21.5-48 48-48v48H432zM32 432c26.5 0 48 21.5 48 48H32V432zM80 288c0 26.5-21.5 48-48 48V288H80zM32 256H0v32V480v32H32 480h32V480 288 256H480 32zM224 384a32 32 0 1 1 64 0 32 32 0 1 1 -64 0zm96 0a64 64 0 1 0 -128 0 64 64 0 1 0 128 0z"/></svg>
